icons/bar-chart-2-fill.svg

<svg xmlns="http://www.w3.org/2000/svg" viewBox="0 0 24 24">
    <g>
        <path fill="none" d="M0 0h24v24H0z"/>
        <path d="M2 13h6v8H2v-8zM9 3h6v18H9V3zm7 5h6v13h-6V8z"/>
    </g>
</svg>

<svg viewBox="0 0 24 24" fill="currentColor" xmlns="http://www.w3.org/2000/svg">
    <path d="M2 13H8V21H2V13ZM9 3H15V21H9V3ZM16 8H22V21H16V8Z"/>
</svg>
